src/assets/svg-icons/settings-icon-light.svg

<svg width="19" height="20" viewBox="0 0 19 20" fill="none" xmlns="http://www.w3.org/2000/svg">
<path d="M9.49977 6.875C8.9126 6.875 8.33863 7.05828 7.85042 7.40166C7.36221 7.74504 6.9817 8.23309 6.757 8.80411C6.5323 9.37513 6.47351 10.0035 6.58806 10.6097C6.70261 11.2158 6.98536 11.7727 7.40054 12.2097C7.81573 12.6467 8.34471 12.9444 8.92059 13.065C9.49647 13.1855 10.0934 13.1236 10.6359 12.8871C11.1783 12.6506 11.642 12.2501 11.9682 11.7362C12.2944 11.2223 12.4685 10.6181 12.4685 10C12.4662 9.17196 12.1526 8.37854 11.5964 7.79302C11.0402 7.20751 10.2864 6.87747 9.49977 6.875ZM15.9093 10C15.9078 10.292 15.8874 10.5836 15.8484 10.8727L17.6553 12.3617C17.734 12.4301 17.787 12.5257 17.8049 12.6315C17.8228 12.7373 17.8043 12.8463 17.7529 12.9391L16.0436 16.0453C15.9917 16.1373 15.9106 16.207 15.8146 16.2422C15.7186 16.2774 15.6139 16.2759 15.5189 16.2379L13.3944 15.3395C12.952 15.698 12.4679 15.9956 11.9538 16.225L11.6362 18.5992C11.6184 18.7056 11.5661 18.8021 11.4882 18.8724C11.4102 18.9426 11.3116 18.9822 11.209 18.9844H7.79051C7.68981 18.9823 7.59275 18.9444 7.51518 18.8768C7.4376 18.8092 7.38409 18.7159 7.36338 18.6121L7.04572 16.2379C6.53023 16.0112 6.04576 15.7131 5.60514 15.3516L3.48063 16.25C3.38566 16.288 3.28099 16.2896 3.18502 16.2545C3.08904 16.2193 3.00792 16.1497 2.9559 16.0578L1.24664 12.952C1.19519 12.8592 1.17676 12.7502 1.19464 12.6444C1.21252 12.5386 1.26555 12.443 1.34424 12.3746L3.1511 10.8855C3.11256 10.5921 3.09223 10.2963 3.09024 10C3.09178 9.708 3.11211 9.41645 3.1511 9.12734L1.34424 7.63828C1.26555 7.56988 1.21252 7.47425 1.19464 7.36849C1.17676 7.26272 1.19519 7.15371 1.24664 7.06094L2.9559 3.95469C3.00786 3.86273 3.08896 3.79301 3.18494 3.75779C3.28091 3.72256 3.38562 3.72409 3.48063 3.76211L5.60514 4.66055C6.04753 4.30196 6.53164 4.00436 7.04572 3.775L7.36338 1.40078C7.38116 1.29443 7.43347 1.19788 7.51138 1.12763C7.58928 1.05738 7.68795 1.01779 7.79051 1.01562H11.209C11.3097 1.01769 11.4068 1.05562 11.4844 1.12323C11.5619 1.19084 11.6154 1.28414 11.6362 1.38789L11.9538 3.76211C12.47 3.98866 12.9551 4.28674 13.3962 4.64844L15.5189 3.75C15.6139 3.71195 15.7185 3.71036 15.8145 3.74551C15.9105 3.78066 15.9916 3.8503 16.0436 3.94219L17.7529 7.04844C17.8043 7.14121 17.8228 7.25022 17.8049 7.35599C17.787 7.46175 17.734 7.55738 17.6553 7.62578L15.8484 9.11484C15.887 9.40819 15.9073 9.70387 15.9093 10Z" fill="#CAC9C9"/>
</svg>

<svg xmlns="http://www.w3.org/2000/svg" width="19" height="20" fill="none" viewBox="0 0 19 20"><path fill="#CAC9C9" d="M9.5 6.875c-.587 0-1.161.183-1.65.527a3.096 3.096 0 0 0-1.093 1.402 3.278 3.278 0 0 0-.169 1.806 3.18 3.18 0 0 0 .813 1.6c.415.437.944.734 1.52.855.575.12 1.172.059 1.715-.178a3.007 3.007 0 0 0 1.332-1.15 3.243 3.243 0 0 0-.372-3.944A2.905 2.905 0 0 0 9.5 6.875ZM15.91 10a6.79 6.79 0 0 1-.062.873l1.807 1.489a.473.473 0 0 1 .098.577l-1.71 3.106a.437.437 0 0 1-.228.197.412.412 0 0 1-.296-.004l-2.125-.899a6.488 6.488 0 0 1-1.44.886l-.318 2.374a.473.473 0 0 1-.148.273.43.43 0 0 1-.279.112H7.791a.433.433 0 0 1-.276-.107.473.473 0 0 1-.152-.265l-.317-2.374a6.22 6.22 0 0 1-1.44-.886l-2.125.898a.412.412 0 0 1-.296.005.438.438 0 0 1-.23-.197l-1.708-3.106a.473.473 0 0 1 .097-.577l1.807-1.49a7.17 7.17 0 0 1-.06-.885c0-.292.021-.584.06-.873L1.344 7.638a.473.473 0 0 1-.098-.577l1.71-3.106a.437.437 0 0 1 .229-.197.412.412 0 0 1 .296.004l2.124.899a6.484 6.484 0 0 1 1.44-.886l.318-2.374a.472.472 0 0 1 .148-.273.43.43 0 0 1 .28-.112h3.418c.1.002.198.04.275.107a.474.474 0 0 1 .152.265l.318 2.374a6.214 6.214 0 0 1 1.442.886l2.123-.898c.095-.038.2-.04.296-.004a.437.437 0 0 1 .229.196l1.709 3.106a.473.473 0 0 1-.098.578l-1.807 1.489c.039.293.06.589.061.885Z"/></svg>
